X: 143
T: dans plin
C: m.marchau
M: 4/4
L: 1/8
R: dans plin
K: Emin
|:B2EB cAB2|GBAG FGAB|EBBE cAB2|
|1 GBAG EFGA:|2 GBAG E2E2|
|:EFFE FGA2|EFFG A2EF|FEFG AFGA|BcAB BAGF|
|B2EB cAB2|1 FAGF E2E2:|2 FAGF EFGA|
